axis-arrow-lock.svg

<svg fill="currentColor" viewBox="0 0 24 24"><path d="M21.8 5c.6 0 1.2.6 1.2 1.3v3.5c0 .6-.6 1.2-1.3 1.2h-5.5c-.6 0-1.2-.6-1.2-1.3V6.2c0-.6.6-1.2 1.2-1.2V3.5C16.2 2.1 17.6 1 19 1s2.8 1.1 2.8 2.5zm-1.3 0V3.5c0-.8-.7-1.3-1.5-1.3s-1.5.5-1.5 1.3V5zM1.74 19.25l1.47-5.46 1.47 2.55L9 13.85V6H6l4-4 4 4h-3v7.85l7.03 4.01 1.47-2.58 1.5 5.46-5.5 1.47 1.53-2.61L10 15.58l-4.32 2.49 1.53 2.64z"/></svg>

<svg  viewBox="0 0 24 24" fill="currentColor"><path  d="M21.8,5C22.4,5 23,5.6 23,6.3V9.8C23,10.4 22.4,11 21.7,11H16.2C15.6,11 15,10.4 15,9.7V6.2C15,5.6 15.6,5 16.2,5V3.5C16.2,2.1 17.6,1 19,1C20.4,1 21.8,2.1 21.8,3.5V5M20.5,5V3.5C20.5,2.7 19.8,2.2 19,2.2C18.2,2.2 17.5,2.7 17.5,3.5V5H20.5M1.74,19.25L3.21,13.79L4.68,16.34L9,13.85V6H6L10,2L14,6H11V13.85L18.03,17.86L19.5,15.28L21,20.74L15.5,22.21L17.03,19.6L10,15.58L5.68,18.07L7.21,20.71L1.74,19.25Z"/></svg>
